;FLAVOR:Marlin
M73 P0
M73 R109
;TIME:6523
;Filament used: 6.58855m, 0m
;Layer height: 0.2
;MINX:54.26
;MINY:61.76
;MINZ:0.25
;MAXX:154.74
;MAXY:162.24
;MAXZ:3.05
;POSTPROCESSED
; KO: customer Search and Replace post-processing plugin in Cura removed Cura's auto-setting of extruder
M82 ;absolute extrusion mode
; START GCODE
START_PRINT BED_TEMP=60.0 EXTRUDER_TEMP=210.0 EXTRUDER=1
G92 E0
T1
G92 E0
G1 F2400 E-3
;LAYER_COUNT:15
;LAYER:0
M107
M204 S750
M205 X10 Y10
G1 F300 Z2.25
G0 F2400 X55.25 Y62.686 Z2.25
M204 S500
M205 X5 Y5
;TYPE:SKIRT
G1 F300 Z0.25
G1 F2400 E0
G1 F1200 X55.642 Y62.361 E0.0254
G1 X56.079 Y62.102 E0.05075
G1 X56.552 Y61.914 E0.07614
G1 X57.048 Y61.802 E0.10151
G1 X57.739 Y61.761 E0.13604
G1 X86.994 Y61.76 E1.59558
G1 X88.921 Y61.767 E1.69172
G1 X89.834 Y61.76 E1.73727
G1 X118.994 Y61.76 E3.19207
G1 X120.921 Y61.767 E3.28821
G1 X121.834 Y61.76 E3.33376
G1 X150.839 Y61.76 E4.78083
G1 X151.537 Y61.77 E4.81565
G1 X152.044 Y61.818 E4.84106
G1 X152.537 Y61.943 E4.86644
G1 X153.004 Y62.145 E4.89182
G1 X153.434 Y62.417 E4.9172
G1 X153.816 Y62.753 E4.94259
G1 X154.14 Y63.145 E4.96796
G1 X154.4 Y63.583 E4.99337
G1 X154.587 Y64.055 E5.0187
G1 X154.698 Y64.552 E5.04411
G1 X154.739 Y65.239 E5.07844
G1 X154.74 Y94.494 E6.53798
G1 X154.733 Y96.446 E6.63537
G1 X154.74 Y97.334 E6.67967
G1 X154.74 Y126.304 E8.12499
G1 X154.731 Y127.031 E8.16126
G1 X154.685 Y127.538 E8.18666
G1 X154.56 Y128.031 E8.21203
G1 X154.359 Y128.498 E8.2374
G1 X154.088 Y128.929 E8.2628
G1 X153.752 Y129.311 E8.28818
G1 X153.361 Y129.637 E8.31358
G1 X152.924 Y129.897 E8.33895
G1 X152.452 Y130.085 E8.36429
G1 X151.86 Y130.21 E8.39448
G1 X150.587 Y130.355 E8.4584
G1 X150.163 Y130.398 E8.47966
G1 X147.445 Y130.751 E8.6164
G1 X144.714 Y131.185 E8.75436
G1 X142.057 Y131.684 E8.88924
G1 X139.398 Y132.262 E9.025
G1 X136.697 Y132.928 E9.16378
G1 X134.067 Y133.658 E9.29996
G1 X131.475 Y134.457 E9.43528
G1 X128.875 Y135.339 E9.57225
G1 X126.28 Y136.302 E9.71034
G1 X123.787 Y137.309 E9.84448
G1 X121.233 Y138.425 E9.98354
G1 X118.781 Y139.58 E10.11876
G1 X116.337 Y140.818 E10.25544
G1 X113.928 Y142.123 E10.39213
G1 X111.604 Y143.47 E10.52614
G1 X109.214 Y144.946 E10.66629
G1 X106.973 Y146.42 E10.80011
G1 X104.687 Y148.019 E10.93929
G1 X102.498 Y149.642 E11.07524
G1 X100.365 Y151.32 E11.21064
G1 X98.261 Y153.075 E11.34733
G1 X96.201 Y154.892 E11.48437
G1 X94.211 Y156.751 E11.62023
G1 X92.268 Y158.672 E11.75655
G1 X90.384 Y160.641 E11.89251
G1 X89.866 Y161.198 E11.93045
G1 X89.491 Y161.542 E11.95584
G1 X89.067 Y161.823 E11.98122
G1 X88.605 Y162.035 E12.00658
G1 X88.114 Y162.171 E12.032
G1 X87.584 Y162.23 E12.0586
G1 X87.17 Y162.24 E12.07926
G1 X58.165 Y162.24 E13.52633
G1 X57.467 Y162.231 E13.56116
G1 X56.961 Y162.184 E13.58651
G1 X56.468 Y162.059 E13.61188
G1 X56 Y161.858 E13.63729
G1 X55.57 Y161.587 E13.66265
G1 X55.188 Y161.251 E13.68803
G1 X54.862 Y160.86 E13.71343
G1 X54.602 Y160.423 E13.7388
G1 X54.414 Y159.95 E13.76419
G1 X54.302 Y159.454 E13.78956
G1 X54.261 Y158.746 E13.82494
G1 X54.26 Y129.506 E15.28373
G1 X54.267 Y127.554 E15.38112
G1 X54.26 Y126.617 E15.42787
G1 X54.26 Y97.506 E16.88022
G1 X54.267 Y95.554 E16.97761
G1 X54.26 Y94.666 E17.02191
G1 X54.26 Y65.63 E18.47052
G1 X54.269 Y64.965 E18.5037
G1 X54.316 Y64.459 E18.52906
G1 X54.442 Y63.966 E18.55444
G1 X54.643 Y63.498 E18.57985
G1 X54.915 Y63.068 E18.60524
G1 X55.25 Y62.686 E18.63059
M204 S750
M205 X10 Y10
G1 F2400 E15.63059
;MESH:EM_Cube-0.940.stl
G0 X54.46 Y62.686
G0 X54.46 Y80.061
G0 X62.591 Y80.061
G0 X63.196 Y81.714
M204 S500
M205 X5 Y5
;TYPE:WALL-INNER
G1 F2400 E18.63059
G1 F1200 X63.083 Y81.704 E18.63591
G1 X62.99 Y81.538 E18.64483
G1 X62.917 Y81.266 E18.65804
G1 X62.848 Y80.667 E18.68631
G1 X62.832 Y80.059 E18.71484
G1 X62.865 Y79.23 E18.75375
G1 X63.011 Y78.545 E18.78659
G1 X63.079 Y78.443 E18.79234
G1 X63.22 Y78.435 E18.79896
G1 X63.308 Y78.585 E18.80712
G1 X63.375 Y78.835 E18.8169
G1 X63.444 Y79.409 E18.84401
G1 X63.462 Y80.012 E18.8723
G1 X63.445 Y80.657 E18.90256
G1 X63.381 Y81.249 E18.93049
G1 X63.307 Y81.527 E18.94153
G1 X63.196 Y81.714 E18.94715
M204 S750
M205 X10 Y10
G0 F2400 X63.401 Y82.164
M204 S500
M205 X5 Y5
;TYPE:WALL-OUTER
G1 F1200 X63.144 Y82.21 E18.9594
G1 X62.855 Y82.144 E18.9733
G1 X62.714 Y82.027 E18.98189
G1 X62.541 Y81.72 E18.99842
G1 X62.444 Y81.356 E19.01608
G1 X62.369 Y80.701 E19.047
G1 X62.351 Y80.053 E19.0774
G1 X62.386 Y79.175 E19.11861
G1 X62.561 Y78.353 E19.15802
G1 X62.78 Y78.03 E19.17632
G1 X63.147 Y77.925 E19.19423
G1 X63.388 Y77.967 E19.2057
G1 X63.581 Y78.102 E19.21674
G1 X63.754 Y78.398 E19.23282
G1 X63.849 Y78.749 E19.24988
G1 X63.923 Y79.371 E19.27925
G1 X63.942 Y80.012 E19.30932
G1 X63.925 Y80.685 E19.3409
G1 X63.854 Y81.338 E19.3717
G1 X63.756 Y81.708 E19.38965
G1 X63.586 Y82.017 E19.40619
G1 X63.401 Y82.164 E19.41727
M204 S750
M205 X10 Y10
G0 F2400 X63.205 Y82.199
G0 X63.113 Y81.68
G0 X63.151 Y81.792
G1 F2400 E16.41727
G0 X63.722 Y80.007
G0 X70.506 Y79.141
G0 X71.062 Y79.497
M204 S500
M205 X5 Y5
;TYPE:WALL-INNER
G1 F2400 E19.41727
G1 F1200 X70.895 Y79.418 E19.42594
G1 X70.799 Y79.234 E19.43567
G1 X70.764 Y78.959 E19.44867
G1 X70.799 Y78.679 E19.4619
G1 X70.9 Y78.481 E19.47233
G1 X71.029 Y78.397 E19.47954
G1 X71.14 Y78.424 E19.4849
G1 X71.255 Y78.518 E19.49187
G1 X71.355 Y78.708 E19.50194
G1 X71.402 Y79.029 E19.51715
G1 X71.362 Y79.261 E19.52819
G1 X71.275 Y79.401 E19.53592
G1 X71.062 Y79.497 E19.54688
M204 S750
M205 X10 Y10
G0 F2400 X71.361 Y79.923
M204 S500
M205 X5 Y5
;TYPE:WALL-OUTER
G1 F1200 X71.063 Y79.988 E19.56118
G1 X70.756 Y79.922 E19.57591
G1 X70.516 Y79.73 E19.59032
G1 X70.334 Y79.38 E19.60882
G1 X70.281 Y78.96 E19.62868
G1 X70.334 Y78.534 E19.64881
G1 X70.52 Y78.169 E19.66802
G1 X70.801 Y77.951 E19.6847
G1 X71.041 Y77.906 E19.69615
G1 X71.362 Y77.984 E19.71164
G1 X71.634 Y78.208 E19.72817
G1 X71.818 Y78.558 E19.74671
G1 X71.888 Y79.034 E19.76927
G1 X71.819 Y79.437 E19.78845
M73 R108
G1 X71.629 Y79.74 E19.80522
G1 X71.361 Y79.923 E19.82044
M204 S750
M205 X10 Y10
G0 F2400 X71.166 Y79.965
G0 X71.055 Y79.45
G0 X71.152 Y79.31
G1 F2400 E16.82044
G0 X71.161 Y79.333
G0 X75.842 Y80.547
G0 X76.645 Y80.516
G1 F2400 E19.82044
G0 X76.785 Y80.656
M204 S500
M205 X5 Y5
G1 F1200 X75.627 Y80.656 E19.87475
G1 X76.353 Y79.675 E19.93198
G1 X76.785 Y79.091 E19.96605
G1 X76.785 Y79.818 E19.98396
G1 X76.785 Y80.656 E20.02326
M204 S750
M205 X10 Y10
G0 F2400 X76.585 Y80.656
G1 F2400 E17.02326
G0 X76.645 Y80.516
G0 X81.273 Y80.41
G0 X81.907 Y81.714
M204 S500
M205 X5 Y5
;TYPE:WALL-INNER
G1 F2400 E20.02326
G1 F1200 X81.794 Y81.704 E20.02858
G1 X81.701 Y81.538 E20.0375
G1 X81.628 Y81.266 E20.05071
G1 X81.559 Y80.667 E20.07899
G1 X81.543 Y80.059 E20.10751
G1 X81.576 Y79.23 E20.14642
G1 X81.722 Y78.545 E20.17926
G1 X81.79 Y78.443 E20.18501
G1 X81.931 Y78.435 E20.19164
G1 X82.019 Y78.586 E20.19983
G1 X82.086 Y78.835 E20.20957
G1 X82.155 Y79.409 E20.23669
G1 X82.173 Y80.012 E20.26498
G1 X82.156 Y80.657 E20.29524
G1 X82.092 Y81.239 E20.32269
G1 X82.017 Y81.53 E20.33425
G1 X81.907 Y81.714 E20.33977
M204 S750
M205 X10 Y10
G0 F2400 X82.112 Y82.164
M204 S500
M205 X5 Y5
;TYPE:WALL-OUTER
G1 F1200 X81.855 Y82.21 E20.35201
G1 X81.566 Y82.144 E20.36591
G1 X81.425 Y82.027 E20.37451
G1 X81.252 Y81.72 E20.39103
G1 X81.155 Y81.356 E20.4087
G1 X81.08 Y80.701 E20.43962
G1 X81.062 Y80.053 E20.47002
G1 X81.097 Y79.175 E20.51123
G1 X81.272 Y78.353 E20.55064
G1 X81.491 Y78.03 E20.56894
G1 X81.858 Y77.925 E20.58684
G1 X82.101 Y77.967 E20.59841
G1 X82.293 Y78.102 E20.60941
G1 X82.465 Y78.398 E20.62547
G1 X82.56 Y78.749 E20.64252
G1 X82.634 Y79.371 E20.6719
G1 X82.653 Y80.012 E20.70197
G1 X82.636 Y80.685 E20.73354
G1 X82.565 Y81.331 E20.76402
G1 X82.467 Y81.708 E20.78229
G1 X82.297 Y82.017 E20.79883
G1 X82.112 Y82.164 E20.80991
M204 S750
M205 X10 Y10
G0 F2400 X81.916 Y82.199
G0 X81.824 Y81.68
G0 X81.854 Y81.79
G1 F2400 E17.80991
G1 F300 Z2.25
G0 F2400 X81.854 Y81.79 Z2.25
G0 X62.64 Y84.495
M204 S500
M205 X5 Y5
;TYPE:WALL-INNER
G1 F300 Z0.25
G1 F2400 E20.80991
G1 F1200 X63.169 Y84.544 E20.83482
G1 X64.008 Y84.438 E20.87448
G1 X64.817 Y84.099 E20.91562
G1 X65.504 Y83.553 E20.95677
G1 X65.527 Y83.523 E20.95855
G1 X65.898 Y84.063 E20.98927
G1 X66.526 Y84.443 E21.02369
G1 X67.206 Y84.561 E21.05606
G1 X67.889 Y84.44 E21.08859
G1 X68.509 Y84.048 E21.12299
G1 X68.744 Y83.7 E21.14268
G1 X68.853 Y83.818
G1 X69.455 Y84.205 E21.17624
G1 X70.205 Y84.468 E21.21352
G1 X70.968 Y84.541 E21.24946
G1 X71.738 Y84.47 E21.28573
G1 X72.513 Y84.22 E21.32392
G1 X73.2 Y83.781 E21.36215
G1 X73.744 Y83.202 E21.39941
G1 X73.929 Y82.885 E21.41662
G1 X74.156 Y83.002 E21.4286
G1 X74.777 Y83.072 E21.4579
G1 X75.868 Y83.072 E21.50907
G1 X75.889 Y83.296 E21.51962
G1 X76.246 Y83.983 E21.55593
G1 X76.873 Y84.433 E21.59212
G1 X77.565 Y84.563 E21.62514
G1 X78.255 Y84.44 E21.65801
G1 X78.897 Y83.992 E21.69472
G1 X79.257 Y83.29 E21.73172
G1 X79.263 Y83.218 E21.73511
G1 X79.407 Y83.425 E21.74117
G1 X79.974 Y83.944 E21.77722
G1 X80.641 Y84.309 E21.81288
G1 X81.351 Y84.495 E21.8473
G1 X81.88 Y84.544 E21.87221
G1 X82.719 Y84.438 E21.91187
G1 X83.527 Y84.099 E21.95296
G1 X84.215 Y83.553 E21.99415
G1 X84.721 Y82.873 E22.0339
G1 X85.017 Y82.204 E22.06821
G1 X85.183 Y81.545 E22.10008
G1 X85.266 Y80.804 E22.13505
G1 X85.288 Y80.105 E22.16785
G1 X85.273 Y79.511 E22.19571
G1 X85.215 Y78.882 E22.22534
G1 X85.073 Y78.243 E22.25603
G1 X84.865 Y77.593 E22.28804
G1 X84.552 Y77.027 E22.31837
G1 X84.145 Y76.522 E22.34879
G1 X83.655 Y76.12 E22.37851
G1 X83.09 Y75.822 E22.40847
G1 X82.455 Y75.645 E22.43938
G1 X81.804 Y75.594 E22.47001
G1 X80.89 Y75.708 E22.5132
G1 X79.982 Y76.119 E22.55994
G1 X79.259 Y76.803 E22.60662
G1 X79.213 Y76.883 E22.61095
G1 X79.161 Y76.609 E22.61758
G1 X78.733 Y76.006 E22.65226
G1 X78.172 Y75.702 E22.68219
G1 X77.497 Y75.54 E22.71474
G1 X76.823 Y75.66 E22.74685
G1 X76.306 Y75.984 E22.77546
G1 X75.843 Y76.524 E22.80882
G1 X74.461 Y78.374 E22.91711
G1 X74.442 Y78.276 E22.92179
G1 X74.187 Y77.562 E22.95735
G1 X73.775 Y76.873 E22.995
G1 X73.241 Y76.322 E23.03098
G1 X72.584 Y75.915 E23.06722
G1 X71.829 Y75.672 E23.10442
G1 X71.076 Y75.603 E23.13988
G1 X70.4 Y75.662 E23.1717
G1 X69.733 Y75.853 E23.20424
G1 X69.145 Y76.163 E23.23542
G1 X68.629 Y76.587 E23.26674
G1 X68.212 Y77.11 E23.2981
G1 X67.917 Y77.697 E23.32891
G1 X67.736 Y78.335 E23.36001
G1 X67.678 Y78.984 E23.39057
G1 X67.729 Y79.599 E23.41951
G1 X67.891 Y80.201 E23.44875
G1 X68.154 Y80.758 E23.47764
G1 X68.291 Y80.943 E23.48843
G1 X68.17 Y81.126 E23.49872
G1 X67.901 Y80.949 E23.50821
G1 X67.188 Y80.817 E23.54222
G1 X66.54 Y80.939 E23.57314
G1 X66.555 Y80.804 E23.57951
G1 X66.577 Y80.105 E23.61231
G1 X66.562 Y79.511 E23.64017
G1 X66.504 Y78.882 E23.6698
G1 X66.362 Y78.244 E23.70045
G1 X66.154 Y77.591 E23.73259
G1 X65.839 Y77.027 E23.76288
G1 X65.434 Y76.524 E23.79317
G1 X64.945 Y76.12 E23.82292
G1 X64.379 Y75.822 E23.85291
G1 X63.744 Y75.645 E23.88383
G1 X63.093 Y75.594 E23.91445
G1 X62.179 Y75.708 E23.95765
G1 X61.271 Y76.119 E24.00439
G1 X60.548 Y76.803 E24.05106
G1 X60.089 Y77.613 E24.09473
G1 X59.892 Y78.263 E24.12658
G1 X59.756 Y79.166 E24.1694
G1 X59.717 Y79.847 E24.20139
G1 X59.72 Y80.558 E24.23474
G1 X59.788 Y81.308 E24.27005
G1 X59.962 Y82.092 E24.30772
G1 X60.266 Y82.807 E24.34415
G1 X60.696 Y83.425 E24.37946
G1 X61.263 Y83.944 E24.41551
G1 X61.93 Y84.309 E24.45116
G1 X62.64 Y84.495 E24.48558
M204 S750
M205 X10 Y10
G0 F2400 X62.723 Y84.021
M73 R108
M204 S500
M205 X5 Y5
G1 F1200 X63.161 Y84.061 E24.50621
G1 X63.883 Y83.97 E24.54034
G1 X64.57 Y83.682 E24.57527
G1 X65.156 Y83.216 E24.61038
G1 X65.593 Y82.629 E24.6447
G1 X65.851 Y82.047 E24.67456
G1 X65.999 Y81.459 E24.70299
G1 X66.076 Y80.77 E24.73551
G1 X66.097 Y80.103 E24.7668
G1 X66.083 Y79.539 E24.79326
G1 X66.029 Y78.957 E24.82067
G1 X65.898 Y78.369 E24.84892
G1 X65.711 Y77.783 E24.87777
G1 X65.44 Y77.296 E24.90391
G1 X65.091 Y76.863 E24.92999
G1 X64.678 Y76.522 E24.95511
G1 X64.201 Y76.271 E24.98038
G1 X63.66 Y76.12 E25.00672
G1 X63.104 Y76.076 E25.03288
G1 X62.311 Y76.175 E25.07036
G1 X61.542 Y76.523 E25.10994
G1 X60.93 Y77.102 E25.14945
G1 X60.533 Y77.803 E25.18723
G1 X60.361 Y78.369 E25.21498
G1 X60.234 Y79.215 E25.25509
G1 X60.197 Y79.86 E25.28539
G1 X60.2 Y80.535 E25.31705
G1 X60.263 Y81.234 E25.34996
G1 X60.421 Y81.945 E25.38412
G1 X60.688 Y82.574 E25.41616
G1 X61.059 Y83.107 E25.44662
G1 X61.544 Y83.551 E25.47746
G1 X62.109 Y83.86 E25.50766
G1 X62.723 Y84.021 E25.53743
M204 S750
M205 X10 Y10
G0 F2400 X62.806 Y83.547
M204 S500
M205 X5 Y5
;TYPE:WALL-OUTER
G1 F1200 X63.152 Y83.578 E25.55372
G1 X63.758 Y83.502 E25.58236
G1 X64.323 Y83.265 E25.61109
G1 X64.808 Y82.879 E25.64016
G1 X65.176 Y82.385 E25.66905
G1 X65.396 Y81.89 E25.69445
G1 X65.526 Y81.373 E25.71945
G1 X65.597 Y80.736 E25.74951
G1 X65.617 Y80.101 E25.77931
G1 X65.604 Y79.567 E25.80436
G1 X65.554 Y79.032 E25.82956
G1 X65.434 Y78.495 E25.85536
G1 X65.268 Y77.975 E25.88096
G1 X65.04 Y77.565 E25.90296
G1 X64.748 Y77.202 E25.92481
G1 X64.411 Y76.924 E25.94529
G1 X64.023 Y76.72 E25.96585
G1 X63.575 Y76.595 E25.98766
G1 X63.115 Y76.558 E26.00931
G1 X62.443 Y76.642 E26.04107
G1 X61.813 Y76.927 E26.07349
G1 X61.312 Y77.401 E26.10584
G1 X60.977 Y77.993 E26.13774
G1 X60.83 Y78.475 E26.16137
G1 X60.712 Y79.264 E26.19878
G1 X60.677 Y79.873 E26.22739
G1 X60.68 Y80.512 E26.25736
G1 X60.738 Y81.16 E26.28787
G1 X60.88 Y81.798 E26.31852
G1 X61.11 Y82.341 E26.34618
G1 X61.422 Y82.789 E26.37178
G1 X61.825 Y83.158 E26.3974
G1 X62.288 Y83.411 E26.42215
G1 X62.806 Y83.547 E26.44726
M204 S750
M205 X10 Y10
G0 F2400 X63.005 Y83.564
G0 X62.957 Y84.09
G0 X65.492 Y83.796
G0 X66.697 Y83.986
M204 S500
M205 X5 Y5
;TYPE:WALL-INNER
G1 F1200 X67.205 Y84.074 E26.47144
G1 X67.712 Y83.984 E26.49559
G1 X68.168 Y83.696 E26.52088
G1 X68.49 Y83.219 E26.54787
G1 X68.582 Y82.676 E26.5737
G1 X68.757 Y83.004 E26.57793
G1 X69.165 Y83.448 E26.60621
G1 X69.667 Y83.771 E26.6342
G1 X70.309 Y83.996 E26.66611
G1 X70.969 Y84.059 E26.6972
G1 X71.641 Y83.997 E26.72885
G1 X72.307 Y83.782 E26.76167
G1 X72.891 Y83.409 E26.79417
G1 X73.357 Y82.913 E26.82608
G1 X73.732 Y82.271 E26.86095
G1 X73.741 Y82.247 E26.86215
G1 X74.298 Y82.535 E26.89156
G1 X74.804 Y82.592 E26.91544
G1 X76.305 Y82.592 E26.98583
G1 X76.358 Y83.158 E27.01249
G1 X76.619 Y83.66 E27.03902
G1 X77.066 Y83.981 E27.06483
G1 X77.567 Y84.075 E27.08874
G1 X78.067 Y83.986 E27.11255
G1 X78.524 Y83.667 E27.13869
G1 X78.786 Y83.156 E27.16562
G1 X78.835 Y82.546 E27.19432
G1 X79.308 Y82.359 E27.21817
G1 X79.399 Y82.574 E27.22912
G1 X79.77 Y83.107 E27.25958
G1 X80.255 Y83.551 E27.29041
G1 X80.82 Y83.86 E27.32061
G1 X81.434 Y84.021 E27.35038
G1 X81.872 Y84.061 E27.37101
G1 X82.594 Y83.97 E27.40514
G1 X83.28 Y83.682 E27.44003
G1 X83.867 Y83.216 E27.47518
G1 X84.304 Y82.629 E27.5095
G1 X84.562 Y82.047 E27.53935
G1 X84.71 Y81.459 E27.56779
G1 X84.787 Y80.77 E27.6003
G1 X84.808 Y80.103 E27.63159
G1 X84.794 Y79.539 E27.65805
G1 X84.74 Y78.957 E27.68546
G1 X84.609 Y78.369 E27.71372
G1 X84.422 Y77.784 E27.74252
G1 X84.152 Y77.296 E27.76867
G1 X83.802 Y76.862 E27.79482
G1 X83.388 Y76.522 E27.81994
G1 X82.912 Y76.271 E27.84518
G1 X82.371 Y76.12 E27.87152
G1 X81.815 Y76.076 E27.89768
G1 X81.022 Y76.175 E27.93515
G1 X80.253 Y76.523 E27.97474
G1 X79.641 Y77.102 E28.01425
G1 X79.244 Y77.803 E28.05203
G1 X79.072 Y78.369 E28.07977
G1 X78.945 Y79.215 E28.11989
G1 X78.908 Y79.86 E28.15019
G1 X78.91 Y80.269 E28.16937
G1 X78.835 Y80.253
G1 X78.835 Y79.215 E28.19955
G1 X78.835 Y78.369 E28.21386
G1 X78.835 Y77.46 E28.24516
G1 X78.709 Y76.802 E28.27658
G1 X78.406 Y76.375 E28.30113
G1 X77.999 Y76.154 E28.32285
G1 X77.482 Y76.03 E28.34779
G1 X76.999 Y76.116 E28.37079
G1 X76.623 Y76.352 E28.39161
G1 X76.218 Y76.824 E28.42078
G1 X74.845 Y78.66 E28.52829
G1 X74.145 Y79.597 E28.58315
G1 X74.122 Y79.17 E28.6032
G1 X73.977 Y78.402 E28.63985
G1 X73.751 Y77.768 E28.67142
G1 X73.392 Y77.167 E28.70425
G1 X72.938 Y76.699 E28.73483
G1 X72.381 Y76.354 E28.76555
G1 X71.732 Y76.145 E28.79753
G1 X71.075 Y76.085 E28.82847
G1 X70.488 Y76.136 E28.8561
G1 X69.913 Y76.301 E28.88415
G1 X69.412 Y76.565 E28.91071
G1 X68.973 Y76.926 E28.93737
G1 X68.618 Y77.37 E28.96402
