; generated by SuperSlicer 2.3.57 on 2022-01-07 at 08:30:14 UTC

; 

; external perimeters extrusion width = 0.40mm
; perimeters extrusion width = 0.44mm
; infill extrusion width = 0.44mm
; solid infill extrusion width = 0.44mm
; top infill extrusion width = 0.44mm
; support material extrusion width = 0.42mm
; first layer extrusion width = 0.44mm

; external perimeters extrusion width = 0.40mm
; perimeters extrusion width = 0.44mm
; infill extrusion width = 0.44mm
; solid infill extrusion width = 0.44mm
; top infill extrusion width = 0.44mm
; support material extrusion width = 0.42mm
; first layer extrusion width = 0.44mm

; external perimeters extrusion width = 0.40mm
; perimeters extrusion width = 0.44mm
; infill extrusion width = 0.44mm
; solid infill extrusion width = 0.44mm
; top infill extrusion width = 0.44mm
; support material extrusion width = 0.42mm
; first layer extrusion width = 0.44mm

; external perimeters extrusion width = 0.40mm
; perimeters extrusion width = 0.45mm
; infill extrusion width = 0.72mm
; solid infill extrusion width = 0.56mm
; top infill extrusion width = 0.40mm
; support material extrusion width = 0.42mm
; first layer extrusion width = 0.44mm

; external perimeters extrusion width = 0.40mm
; perimeters extrusion width = 0.45mm
; infill extrusion width = 0.72mm
; solid infill extrusion width = 0.56mm
; top infill extrusion width = 0.40mm
; support material extrusion width = 0.42mm
; first layer extrusion width = 0.44mm

; external perimeters extrusion width = 0.40mm
; perimeters extrusion width = 0.45mm
; infill extrusion width = 0.72mm
; solid infill extrusion width = 0.56mm
; top infill extrusion width = 0.40mm
; support material extrusion width = 0.42mm
; first layer extrusion width = 0.44mm

; object:{"name":"calibrate_idex","id":"calibrate_idex.stl id:0 copy 0","object_center":[102.500000,110.000000,0.000000],"boundingbox_center":[102.500000,110.000000,9.750000],"boundingbox_size":[24.000000,34.000000,19.500000]}
; Total objects to print: 1
M486 T1
; plater:{"center":[102.500000,110.000000,0.000000],"boundingbox_center":[102.500000,110.000000,9.750000],"boundingbox_size":[24.000000,34.000000,19.500000]}

M73 P0 R55
M140 S60 ; set bed temperature
;TYPE:Custom
START_PRINT BED_TEMP=60 EXTRUDER_TEMP=205
M107
G21 ; set units to millimeters
G90 ; use absolute coordinates
M82 ; use absolute distances for extrusion
G92 E0
T0
G92 E0
; Filament gcode
M109 S205 T0 ; set temperature and wait for it to be reached
M190 S60 ; set bed temperature and wait for it to be reached
;LAYER_CHANGE
;Z:0.3
;HEIGHT:0.3
G1 Z0.3 F12000
G1 E-6.5 F1800
G1 Z1.3 F12000
G1 X84.45871 Y86.59608
G1 Z0.3
G1 E0 F1200
;TYPE:Skirt
;WIDTH:0.44
G1 F3000
G1 X83.99171 Y87.05155 E0.03056
G1 X83.35308 Y87.83634 E0.07796
G1 X82.80856 Y88.68912 E0.12537
G1 X82.34566 Y89.64611 E0.17517
G1 X82.00129 Y90.65185 E0.22497
G1 X81.78047 Y91.69172 E0.27478
G1 X81.68639 Y92.75061 E0.32458
G1 X81.70647 Y127.64472 E1.95935
G1 X81.85224 Y128.71991 E2.01018
G1 X82.12897 Y129.76905 E2.06101
G1 X82.53246 Y130.77627 E2.11184
G1 X83.06055 Y131.73249 E2.16302
G1 X83.69815 Y132.61041 E2.21385
G1 X84.43876 Y133.40337 E2.26469
G1 X85.27115 Y134.09937 E2.31552
G1 X86.18912 Y134.69144 E2.3667
G1 X87.12577 Y135.14594 E2.41547
G1 X88.10945 Y135.48688 E2.46424
G1 X89.13371 Y135.71063 E2.51336
G1 X90.16996 Y135.81096 E2.56214
G1 X115.32747 Y135.77822 E3.74075
G1 X116.3779 Y135.61483 E3.79055
G1 X117.40103 Y135.32622 E3.84036
G1 X118.38199 Y134.91656 E3.89016
G1 X119.30652 Y134.39183 E3.93996
G1 X120.16681 Y133.75494 E3.99011
G1 X120.93856 Y133.02385 E4.03992
G1 X121.61673 Y132.2052 E4.08972
G1 X122.19144 Y131.31087 E4.13952
G1 X122.65713 Y130.3471 E4.18967
G1 X123.0026 Y129.33401 E4.23982
G1 X123.22277 Y128.28651 E4.28996
G1 X123.31439 Y127.22005 E4.34011
G1 X123.31709 Y92.97092 E5.94466
G1 X123.20257 Y91.58327 E6.00989
G1 X122.82138 Y90.08512 E6.08231
G1 X122.18079 Y88.67017 E6.15508
G1 X121.30185 Y87.38959 E6.22785
G1 X120.21743 Y86.28786 E6.30027
G1 X118.95726 Y85.39246 E6.37269
G1 X117.55319 Y84.72837 E6.44546
G1 X116.05438 Y84.32096 E6.51823
G1 X114.50734 Y84.18287 E6.59099
G1 X90.47092 Y84.18291 E7.71708
G1 X89.25731 Y84.27088 E7.77409
G1 X88.26545 Y84.47072 E7.82149
G1 X87.30301 Y84.78288 E7.86889
G1 X86.38266 Y85.20324 E7.91629
G1 X85.51654 Y85.72628 E7.9637
G1 X84.71604 Y86.3451 E8.0111
G1 X84.50166 Y86.55418 E8.02513
G1 X84.76288 Y86.82437 F12000
G1 F3000
G1 X84.29403 Y87.27766 E8.05568
G1 X83.67944 Y88.02616 E8.10105
G1 X83.15108 Y88.84637 E8.14676
G1 X82.70153 Y89.76843 E8.19482
G1 X82.36713 Y90.73821 E8.24288
G1 X82.15284 Y91.74139 E8.29094
G1 X82.06181 Y92.76316 E8.339
G1 X82.07915 Y127.59034 E9.97063
G1 X82.21568 Y128.62149 E10.01936
G1 X82.47798 Y129.62801 E10.06809
G1 X82.86208 Y130.59464 E10.11682
G1 X83.36215 Y131.50669 E10.16555
G1 X83.97058 Y132.35032 E10.21428
G1 X84.67815 Y133.11271 E10.26301
G1 X85.47411 Y133.7823 E10.31174
G1 X86.34637 Y134.34892 E10.36047
G1 X87.25517 Y134.79296 E10.40786
G1 X88.20365 Y135.12318 E10.45491
G1 X89.19173 Y135.33952 E10.50229
G1 X90.19142 Y135.43587 E10.54935
G1 X115.25491 Y135.40769 E11.72355
G1 X116.26213 Y135.25555 E11.77128
G1 X117.2437 Y134.98319 E11.819
G1 X118.18531 Y134.59458 E11.86672
G1 X119.07929 Y134.0915 E11.91478
G1 X119.90013 Y133.48828 E11.96251
G1 X120.64233 Y132.79059 E12.01023
G1 X121.2951 Y132.00858 E12.05795
G1 X121.84892 Y131.15363 E12.10567
G1 X122.30122 Y130.22494 E12.15407
G1 X122.6367 Y129.24795 E12.20246
G1 X122.85035 Y128.23731 E12.25086
G1 X122.93895 Y127.20814 E12.29925
G1 X122.94148 Y92.97623 E13.90299
G1 X122.83806 Y91.68243 E13.9638
G1 X122.47617 Y90.23595 E14.03366
G1 X121.86892 Y88.88197 E14.10318
G1 X121.02942 Y87.64968 E14.17303
G1 X119.9862 Y86.58433 E14.24289
G1 X118.77181 Y85.71915 E14.31274
G1 X117.43088 Y85.08361 E14.38226
G1 X115.99231 Y84.69144 E14.45212
G1 X114.50718 Y84.55849 E14.52198
G1 X90.47623 Y84.55852 E15.64781
G1 X89.35285 Y84.63679 E15.70057
G1 X88.39552 Y84.82501 E15.74627
G1 X87.47301 Y85.11986 E15.79165
G1 X86.59033 Y85.51844 E15.83702
G1 X85.75912 Y86.0155 E15.88239
G1 X84.99032 Y86.60449 E15.92777
G1 X84.80602 Y86.78267 E15.93978
G1 X85.06624 Y87.05429 F12000
G1 F3000
G1 X84.59263 Y87.50803 E15.9705
G1 X83.99815 Y88.22667 E16.0142
G1 X83.49407 Y89.00304 E16.05757
G1 X83.05769 Y89.89023 E16.10389
G1 X82.73313 Y90.82413 E16.15021
G1 X82.52422 Y91.79767 E16.19685
G1 X82.43703 Y92.78252 E16.24317
G1 X82.45207 Y127.53807 E17.87145
G1 X82.57836 Y128.51867 E17.91777
G1 X82.82583 Y129.48313 E17.96442
G1 X83.18729 Y130.40338 E18.01074
G1 X83.66234 Y131.27845 E18.05738
G1 X84.23716 Y132.08288 E18.1037
G1 X84.91115 Y132.81579 E18.15035
G1 X85.6703 Y133.46008 E18.197
G1 X86.50304 Y134.00593 E18.24365
G1 X87.37728 Y134.43689 E18.28931
G1 X88.29712 Y134.75926 E18.33497
G1 X89.2422 Y134.96722 E18.38031
G1 X90.21239 Y135.06077 E18.42597
G1 X115.19198 Y135.03616 E19.59625
G1 X116.15625 Y134.89402 E19.64191
G1 X117.08969 Y134.63886 E19.68725
G1 X117.99218 Y134.27072 E19.73291
G1 X118.84368 Y133.79641 E19.77858
G1 X119.63175 Y133.22285 E19.82424
G1 X120.34488 Y132.55842 E19.8699
G1 X120.97267 Y131.81283 E19.91557
G1 X121.50593 Y130.99696 E19.96123
G1 X121.94502 Y130.1033 E20.00788
G1 X122.27065 Y129.16235 E20.05453
G1 X122.47786 Y128.18845 E20.10118
G1 X122.56351 Y127.19644 E20.14782
G1 X122.56588 Y92.98074 E21.75081
G1 X122.47395 Y91.78557 E21.80696
G1 X122.13435 Y90.39702 E21.87393
G1 X121.55836 Y89.09637 E21.94058
G1 X120.75841 Y87.91168 E22.00755
G1 X119.7619 Y86.88681 E22.07452
G1 X118.60012 Y86.05394 E22.14149
G1 X117.30956 Y85.43924 E22.20846
G1 X115.93076 Y85.06201 E22.27543
G1 X114.50702 Y84.9341 E22.3424
G1 X90.48074 Y84.93412 E23.46801
G1 X89.4523 Y85.00243 E23.5163
G1 X88.53609 Y85.17684 E23.55999
G1 X87.65269 Y85.45337 E23.60336
G1 X86.80057 Y85.83251 E23.64705
G1 X86.00373 Y86.30356 E23.69042
G1 X85.2661 Y86.86281 E23.73379
G1 X85.10957 Y87.01278 E23.74394
G1 X85.36858 Y87.28524 F12000
G1 F3000
G1 X84.88777 Y87.74231 E23.77502
G1 X84.32189 Y88.42055 E23.81641
G1 X83.83409 Y89.16514 E23.85811
G1 X83.41147 Y90.01785 E23.90269
G1 X83.09741 Y90.91624 E23.94728
G1 X82.89672 Y91.84653 E23.99187
G1 X82.81247 Y92.79449 E24.03645
G1 X82.82518 Y127.48745 E25.6618
G1 X82.94416 Y128.43168 E25.70638
G1 X83.17676 Y129.34747 E25.75065
G1 X83.51991 Y130.22781 E25.79491
G1 X83.96843 Y131.05943 E25.83918
G1 X84.51554 Y131.82977 E25.88345
G1 X85.15299 Y132.5272 E25.92771
G1 X85.87116 Y133.1412 E25.97198
G1 X86.66514 Y133.6659 E26.01656
G1 X87.49892 Y134.08053 E26.06019
G1 X88.38328 Y134.39324 E26.10414
G1 X89.29914 Y134.59594 E26.14808
G1 X90.23286 Y134.68564 E26.19203
G1 X115.13094 Y134.66436 E27.35849
G1 X116.05266 Y134.53191 E27.40211
G1 X116.94512 Y134.29122 E27.44542
G1 X117.80843 Y133.94224 E27.48904
G1 X118.61746 Y133.49515 E27.53235
G1 X119.3723 Y132.94989 E27.57597
G1 X120.05096 Y132.32233 E27.61928
G1 X120.65354 Y131.61241 E27.6629
G1 X121.1659 Y130.83486 E27.70653
G1 X121.59118 Y129.97583 E27.75143
G1 X121.90629 Y129.07057 E27.79634
G1 X122.10634 Y128.13314 E27.84125
G1 X122.18806 Y127.18496 E27.88583
G1 X122.19027 Y92.98494 E29.48808
G1 X122.10914 Y91.88585 E29.53971
G1 X121.79122 Y90.55488 E29.60382
G1 X121.24243 Y89.30134 E29.66793
G1 X120.48015 Y88.1649 E29.73204
G1 X119.52853 Y87.18156 E29.79615
G1 X118.4177 Y86.38244 E29.86026
G1 X117.18923 Y85.79525 E29.92405
G1 X115.86973 Y85.43268 E29.98816
G1 X114.50685 Y85.30972 E30.05227
G1 X90.47809 Y85.30975 E31.178
G1 X89.54199 Y85.36962 E31.22194
G1 X88.66667 Y85.53144 E31.26365
G1 X87.82234 Y85.79094 E31.30503
G1 X87.00723 Y86.14865 E31.34673
G1 X86.24462 Y86.59436 E31.38811
G1 X85.53292 Y87.12901 E31.42982
G1 X85.41206 Y87.2439 E31.43763
G1 X85.66993 Y87.51815 F12000
G1 F3000
G1 X85.18889 Y87.97044 E31.46856
G1 X84.64242 Y88.61901 E31.50829
G1 X84.17469 Y89.32648 E31.54803
G1 X83.76564 Y90.14472 E31.59088
G1 X83.46191 Y91.00762 E31.63374
G1 X83.26826 Y91.90169 E31.6766
G1 X83.18773 Y92.81293 E31.71946
G1 X83.19846 Y127.43805 E33.34162
G1 X83.30658 Y128.32628 E33.38354
G1 X83.52435 Y129.20104 E33.42577
G1 X83.84806 Y130.04237 E33.46801
G1 X84.27281 Y130.83749 E33.51024
G1 X84.79213 Y131.57433 E33.55247
G1 X85.39336 Y132.23703 E33.59439
G1 X86.07632 Y132.82541 E33.63662
G1 X86.82648 Y133.32531 E33.67886
G1 X87.62627 Y133.72652 E33.72078
G1 X88.4755 Y134.02892 E33.76301
G1 X89.35547 Y134.22456 E33.80524
G1 X90.25282 Y134.31049 E33.84748
G1 X115.07136 Y134.29231 E35.01021
G1 X115.95092 Y134.16932 E35.05182
G1 X116.80275 Y133.94274 E35.09311
G1 X117.62115 Y133.61534 E35.13441
G1 X118.39421 Y133.19188 E35.1757
G1 X119.11073 Y132.67851 E35.217
G1 X119.7603 Y132.08267 E35.25829
G1 X120.33348 Y131.41303 E35.29959
G1 X120.82531 Y130.67352 E35.3412
G1 X121.23436 Y129.85528 E35.38405
G1 X121.53991 Y128.98595 E35.42722
G1 X121.73373 Y128.0851 E35.47039
G1 X121.8126 Y127.17371 E35.51325
G1 X121.81464 Y92.98264 E37.11508
G1 X121.74371 Y91.98368 E37.162
G1 X121.44693 Y90.70993 E37.22327
G1 X120.93125 Y89.51527 E37.28423
G1 X120.20787 Y88.42567 E37.3455
G1 X119.30201 Y87.4823 E37.40678
G1 X118.24264 Y86.71534 E37.46805
G1 X117.06361 Y86.14929 E37.52932
G1 X115.8092 Y85.80345 E37.59028
G1 X114.50668 Y85.68534 E37.65156
G1 X90.48264 Y85.68536 E38.77707
G1 X89.62945 Y85.73733 E38.81711
G1 X88.79464 Y85.88691 E38.85684
G1 X87.98904 Y86.12982 E38.89626
G1 X87.21069 Y86.46664 E38.936
G1 X86.48215 Y86.88762 E38.97542
G1 X85.80677 Y87.38949 E39.01484
G1 X85.71364 Y87.47705 E39.02083
G1 X85.9701 Y87.75198 F12000
G1 F3000
G1 X85.48222 Y88.20706 E39.05208
G1 X84.96389 Y88.81647 E39.08956
G1 X84.51586 Y89.4871 E39.12735
G1 X84.12018 Y90.27086 E39.16848
G1 X83.82662 Y91.09831 E39.20961
G1 X83.63991 Y91.95621 E39.25075
G1 X83.56302 Y92.83081 E39.29188
G1 X83.57226 Y127.39588 E40.91123
G1 X83.67299 Y128.24191 E40.95115
G1 X83.87665 Y129.0692 E40.99106
G1 X84.18016 Y129.86531 E41.03098
G1 X84.57895 Y130.61821 E41.07089
G1 X85.067 Y131.31657 E41.11081
G1 X85.63695 Y131.94986 E41.15072
G1 X86.28022 Y132.50852 E41.19064
G1 X86.9871 Y132.98414 E41.23055
G1 X87.75292 Y133.37212 E41.27077
G1 X88.56704 Y133.66438 E41.3113
G1 X89.40477 Y133.85207 E41.35152
G1 X90.26576 Y133.93509 E41.39204
G1 X115.01277 Y133.92007 E42.55142
G1 X115.84421 Y133.8076 E42.59073
G1 X116.6498 Y133.59763 E42.62973
G1 X117.43035 Y133.28994 E42.66904
G1 X118.16806 Y132.8903 E42.70835
G1 X118.84708 Y132.40863 E42.74735
G1 X119.46807 Y131.84445 E42.78666
G1 X120.01643 Y131.20944 E42.82596
G1 X120.48414 Y130.51289 E42.86527
G1 X120.88238 Y129.72315 E42.90671
G1 X121.17516 Y128.89543 E42.94784
G1 X121.36107 Y128.03736 E42.98897
G1 X121.43714 Y127.16268 E43.0301
G1 X121.43903 Y92.98787 E44.63117
G1 X121.37685 Y92.07303 E44.67413
G1 X121.09964 Y90.85639 E44.73259
G1 X120.6121 Y89.71479 E44.79075
G1 X119.92895 Y88.67833 E44.8489
G1 X119.06717 Y87.77589 E44.90736
G1 X118.06328 Y87.04573 E44.96552
G1 X116.94536 Y86.50611 E45.02367
G1 X115.74277 Y86.17315 E45.08213
G1 X114.50651 Y86.06096 E45.14029
G1 X89.71511 Y86.10549 E46.30175
G1 X88.92676 Y86.24165 E46.33923
G1 X88.15319 Y86.46985 E46.37702
G1 X87.41133 Y86.78627 E46.4148
G1 X86.71665 Y87.18308 E46.45228
G1 X86.06724 Y87.66136 E46.49007
G1 X86.01397 Y87.71106 E46.49348
G1 X86.27758 Y88.03147 F12000
G1 F3000
G1 X85.77272 Y88.44682 E46.52411
G1 X85.27479 Y89.02813 E46.55997
G1 X84.85114 Y89.658 E46.59553
G1 X84.47258 Y90.40215 E46.63465
G1 X84.18981 Y91.19442 E46.67406
G1 X84.01165 Y92.01009 E46.71317
G1 X83.93848 Y92.84178 E46.75229
G1 X83.94611 Y127.35365 E48.36914
G1 X84.0384 Y128.15165 E48.40678
G1 X84.22749 Y128.9324 E48.44441
G1 X84.51054 Y129.6842 E48.48205
G1 X84.88659 Y130.4012 E48.51998
G1 X85.34806 Y131.06645 E48.55791
G1 X85.88342 Y131.66538 E48.59554
G1 X86.49295 Y132.19828 E48.63348
G1 X87.158 Y132.64886 E48.67111
G1 X87.89634 Y133.02491 E48.70993
G1 X88.67009 Y133.30317 E48.74845
G1 X89.47257 Y133.48251 E48.78698
G1 X90.29117 Y133.5601 E48.8255
G1 X114.95473 Y133.54766 E49.98097
G1 X115.745 Y133.44427 E50.01831
G1 X116.51088 Y133.24779 E50.05535
G1 X117.25333 Y132.958 E50.09269
G1 X117.94979 Y132.58368 E50.12973
G1 X118.59619 Y132.12833 E50.16678
G1 X119.18315 Y131.59855 E50.20382
G1 X119.706 Y130.99702 E50.24116
G1 X120.14886 Y130.342 E50.2782
G1 X120.52742 Y129.59785 E50.31732
G1 X120.81019 Y128.80558 E50.35673
G1 X120.9893 Y127.98365 E50.39614
G1 X121.06181 Y127.14556 E50.43555
G1 X121.06342 Y92.98796 E52.03581
G1 X121.0096 Y92.16112 E52.07463
G1 X120.75359 Y91.0072 E52.13
G1 X120.29477 Y89.91791 E52.18538
G1 X119.64802 Y88.92858 E52.24075
G1 X118.83907 Y88.07546 E52.29583
G1 X117.88548 Y87.37709 E52.35121
G1 X116.82209 Y86.86107 E52.40658
G1 X115.6834 Y86.54414 E52.46195
G1 X114.50633 Y86.43658 E52.51733
G1 X89.79311 Y86.47475 E53.67513
G1 X89.04442 Y86.60001 E53.71069
G1 X88.30924 Y86.81299 E53.74655
G1 X87.60385 Y87.1101 E53.78241
G1 X86.94316 Y87.48389 E53.81797
G1 X86.32391 Y87.99335 E53.85554
G1 X86.5597 Y88.28261 F12000
G1 F3000
G1 X86.06071 Y88.68936 E53.8857
G1 X85.18725 Y89.82767 E53.95292
G1 X84.82302 Y90.53811 E53.99032
G1 X84.555 Y91.28363 E54.02744
G1 X84.38349 Y92.06335 E54.06484
G1 X84.31381 Y92.85867 E54.10224
G1 X84.32 Y127.31087 E55.71631
G1 X84.40394 Y128.06162 E55.7517
G1 X84.58052 Y128.80243 E55.78738
G1 X84.84677 Y129.51593 E55.82306
G1 X85.19548 Y130.18606 E55.85845
G1 X85.62703 Y130.81355 E55.89413
G1 X86.1324 Y131.38327 E55.9298
G1 X86.69907 Y131.88282 E55.9652
G1 X87.32767 Y132.31275 E56.00087
G1 X88.02121 Y132.66962 E56.03742
G1 X88.76002 Y132.93814 E56.07424
G1 X89.52692 Y133.11082 E56.11107
G1 X90.30952 Y133.18488 E56.1479
G1 X114.90903 Y133.17427 E57.30037
G1 X115.64628 Y133.08071 E57.33519
G1 X116.37285 Y132.89758 E57.37029
G1 X117.07196 Y132.62797 E57.40539
G1 X117.73335 Y132.27583 E57.4405
G1 X118.34252 Y131.85016 E57.47531
G1 X118.90059 Y131.35015 E57.51042
G1 X119.39036 Y130.79122 E57.54524
G1 X119.81275 Y130.17233 E57.58034
G1 X120.17698 Y129.46189 E57.61774
G1 X120.4467 Y128.71047 E57.65514
G1 X120.61744 Y127.93057 E57.69255
G1 X120.68633 Y127.13519 E57.72995
G1 X120.6878 Y92.99013 E59.32962
G1 X120.64199 Y92.24838 E59.36444
