;FLAVOR:Marlin
M73 P0
M73 R56
;TIME:3345
;Filament used: 5.77417m, 0m
;Layer height: 0.2
;MINX:39.299
;MINY:46.799
;MINZ:0.3
;MAXX:165.7
;MAXY:173.2
;MAXZ:60.213
;POSTPROCESSED
; KO: customer Search and Replace post-processing plugin in Cura removed Cura's auto-setting of extruder
M82 ;absolute extrusion mode
; START GCODE
START_PRINT BED_TEMP=60.0 EXTRUDER_TEMP=210.0 EXTRUDER=0
G92 E0
T0
G92 E0
G1 F2400 E-3
;LAYER_COUNT:300
;LAYER:0
M107
M205 X10 Y10
G1 F300 Z2.3
G0 F2400 X40.294 Y47.701 Z2.3
M205 X5 Y5
;TYPE:SKIRT
G1 F300 Z0.3
G1 F2400 E0
G1 F1200 X40.685 Y47.38 E0.02524
G1 X41.122 Y47.126 E0.05046
G1 X41.593 Y46.943 E0.07567
G1 X42.088 Y46.837 E0.10092
G1 X42.74 Y46.801 E0.1335
G1 X75.622 Y46.799 E1.77399
G1 X114.459 Y46.8 E3.71157
G1 X115.155 Y46.81 E3.7463
G1 X118.233 Y46.984 E3.90011
G1 X120.988 Y47.063 E4.03761
G1 X123.707 Y47.063 E4.17326
G1 X126.461 Y46.986 E4.31072
G1 X129.073 Y46.84 E4.44123
G1 X129.618 Y46.808 E4.46847
G1 X130.216 Y46.8 E4.49831
G1 X161.839 Y46.8 E6.07598
G1 X162.537 Y46.81 E6.11081
G1 X163.04 Y46.857 E6.13602
G1 X163.53 Y46.983 E6.16126
G1 X163.994 Y47.185 E6.1865
G1 X164.42 Y47.457 E6.21172
G1 X164.798 Y47.792 E6.23692
G1 X165.118 Y48.183 E6.26213
G1 X165.373 Y48.62 E6.28737
G1 X165.556 Y49.091 E6.31258
G1 X165.663 Y49.585 E6.3378
G1 X165.699 Y50.24 E6.37052
G1 X165.7 Y57.304 E6.72295
G1 X165.691 Y58.031 E6.75922
G1 X165.645 Y58.534 E6.78442
G1 X165.52 Y59.024 E6.80965
G1 X165.319 Y59.488 E6.83488
G1 X165.048 Y59.915 E6.86011
G1 X164.713 Y60.294 E6.88534
G1 X164.323 Y60.615 E6.91054
G1 X163.887 Y60.871 E6.93577
G1 X163.416 Y61.054 E6.96098
G1 X162.922 Y61.162 E6.98621
G1 X162.26 Y61.199 E7.01929
G1 X150.545 Y61.2 E7.60375
G1 X147.748 Y61.24 E7.74331
G1 X145.031 Y61.355 E7.87898
G1 X142.285 Y61.55 E8.01632
G1 X139.579 Y61.818 E8.15199
G1 X136.856 Y62.166 E8.28894
G1 X134.155 Y62.591 E8.42535
G1 X131.447 Y63.094 E8.56277
G1 X128.79 Y63.666 E8.69836
G1 X126.143 Y64.314 E8.83432
G1 X123.503 Y65.041 E8.97093
G1 X120.856 Y65.851 E9.10904
G1 X118.261 Y66.726 E9.24566
G1 X115.725 Y67.662 E9.38053
G1 X113.15 Y68.696 E9.51897
G1 X110.64 Y69.788 E9.65553
G1 X108.183 Y70.94 E9.79091
G1 X105.74 Y72.17 E9.92737
G1 X103.307 Y73.485 E10.06535
M73 R56
G1 X100.969 Y74.832 E10.19997
G1 X98.596 Y76.292 E10.33897
G1 X96.332 Y77.775 E10.474
G1 X94.088 Y79.338 E10.61043
G1 X91.872 Y80.976 E10.74791
G1 X89.71 Y82.669 E10.88491
G1 X87.613 Y84.41 E11.02089
G1 X85.552 Y86.223 E11.15783
G1 X83.573 Y88.063 E11.29265
G1 X81.584 Y90.023 E11.43196
G1 X79.717 Y91.97 E11.56654
G1 X77.872 Y94.005 E11.70358
G1 X76.077 Y96.101 E11.84126
G1 X74.373 Y98.21 E11.97653
G1 X72.715 Y100.385 E12.11297
G1 X71.104 Y102.625 E12.25063
G1 X69.576 Y104.882 E12.38661
G1 X68.104 Y107.195 E12.52339
G1 X66.693 Y109.559 E12.66074
G1 X65.375 Y111.914 E12.79538
G1 X64.097 Y114.357 E12.93293
G1 X62.889 Y116.836 E13.07051
G1 X61.764 Y119.32 E13.20656
G1 X60.712 Y121.83 E13.34234
G1 X59.706 Y124.429 E13.48138
G1 X58.807 Y126.974 E13.61603
G1 X57.969 Y129.572 E13.75223
G1 X57.199 Y132.209 E13.88928
G1 X56.51 Y134.846 E14.02526
G1 X55.892 Y137.519 E14.16213
G1 X55.343 Y140.238 E14.30052
G1 X54.885 Y142.9 E14.43528
G1 X54.493 Y145.637 E14.57322
G1 X54.184 Y148.333 E14.70861
G1 X53.95 Y151.048 E14.84456
G1 X53.792 Y153.794 E14.98179
G1 X53.71 Y156.579 E15.12079
G1 X53.7 Y158.023 E15.19283
G1 X53.7 Y169.308 E15.75584
G1 X53.69 Y170.035 E15.79212
G1 X53.643 Y170.538 E15.81732
G1 X53.517 Y171.028 E15.84256
G1 X53.316 Y171.492 E15.86779
G1 X53.044 Y171.918 E15.89301
G1 X52.709 Y172.297 E15.91824
G1 X52.318 Y172.617 E15.94345
G1 X51.882 Y172.872 E15.96865
G1 X51.411 Y173.056 E15.99388
G1 X50.916 Y173.162 E16.01913
G1 X50.26 Y173.199 E16.05191
G1 X43.166 Y173.2 E16.40583
G1 X42.468 Y173.191 E16.44066
G1 X41.964 Y173.144 E16.46591
G1 X41.474 Y173.019 E16.49114
G1 X41.01 Y172.818 E16.51637
G1 X40.584 Y172.547 E16.54156
G1 X40.205 Y172.212 E16.5668
G1 X39.884 Y171.821 E16.59203
G1 X39.629 Y171.385 E16.61723
G1 X39.445 Y170.914 E16.64246
G1 X39.338 Y170.42 E16.66768
G1 X39.301 Y169.744 E16.70146
G1 X39.299 Y136.878 E18.34115
G1 X39.3 Y98.041 E20.27873
G1 X39.31 Y97.345 E20.31346
G1 X39.484 Y94.267 E20.46727
M73 R55
G1 X39.563 Y91.512 E20.60477
G1 X39.563 Y88.793 E20.74042
G1 X39.486 Y86.038 E20.87792
G1 X39.339 Y83.409 E21.00929
G1 X39.308 Y82.882 E21.03563
G1 X39.3 Y82.285 E21.06541
G1 X39.3 Y50.626 E22.64489
G1 X39.31 Y49.961 E22.67807
G1 X39.358 Y49.458 E22.70328
G1 X39.484 Y48.968 E22.72852
G1 X39.686 Y48.504 E22.75377
G1 X39.958 Y48.078 E22.77898
G1 X40.294 Y47.701 E22.80418
M205 X10 Y10
G1 F2400 E19.80418
;MESH:ringing_tower.stl
G0 X42.82 Y50.32
G0 X75.219 Y50.392
G0 X72.033 Y54.971
G0 X79.151 Y55.376
G0 X76.176 Y50.392
G0 X114.925 Y50.375
G0 X118.426 Y55.375
G0 X126.316 Y55.375
G0 X129.817 Y50.375
G0 X162.118 Y50.382
G0 X162.118 Y57.618
G0 X110.654 Y57.626
G0 X109.155 Y56.126
M73 P1
G0 X103.845 Y56.126
G0 X102.346 Y57.626
G0 X50.118 Y57.618
G1 F2400 E22.80418
G0 X50.3 Y57.8
M205 X5 Y5
;TYPE:WALL-OUTER
G1 F1200 X50.3 Y92.283 E24.52454
G1 X48.869 Y93.933 E24.63351
G1 X48.8 Y93.994 E24.6381
G1 X48.8 Y99.917 E24.9336
G1 X50.3 Y101.645 E25.04776
G1 X50.3 Y126.355 E26.28055
G1 X48.8 Y128.083 E26.39471
G1 X48.8 Y133.989 E26.68936
G1 X50.3 Y135.716 E26.80348
G1 X50.3 Y169.8 E28.50394
G1 X42.7 Y169.8 E28.88311
G1 X42.7 Y137.078 E30.51561
G1 X42.936 Y137.078 E30.52739
G1 X47.485 Y140.261 E30.80438
G1 X47.7 Y140.149 E30.81647
G1 X47.7 Y133.456 E31.15039
G1 X47.485 Y133.344 E31.16248
G1 X42.936 Y136.527 E31.43947
G1 X42.7 Y136.528 E31.45125
G1 X42.7 Y97.484 E33.39916
G1 X47.7 Y93.983 E33.70368
G1 X47.7 Y86.275 E34.08824
G1 X42.7 Y82.774 E34.39276
G1 X42.7 Y50.2 E36.01788
G1 X75.422 Y50.2 E37.65039
G1 X75.422 Y50.436 E37.66216
G1 X72.239 Y54.985 E37.93915
G1 X72.351 Y55.2 E37.95125
G1 X79.044 Y55.2 E38.28516
G1 X79.156 Y54.985 E38.29726
M73 R55
G1 X75.973 Y50.436 E38.57425
G1 X75.972 Y50.2 E38.58602
G1 X115.016 Y50.2 E40.53394
G1 X118.517 Y55.2 E40.83846
G1 X126.225 Y55.2 E41.22301
G1 X129.726 Y50.2 E41.52754
G1 X162.3 Y50.2 E43.15266
G1 X162.3 Y57.8 E43.53183
G1 X110.582 Y57.8 E46.11205
G1 X109.083 Y56.3 E46.21784
G1 X103.917 Y56.3 E46.47558
G1 X102.418 Y57.8 E46.58138
G1 X50.3 Y57.8 E49.18155
M205 X10 Y10
G0 F2400 X50.3 Y58
G0 X49.91 Y57.41
M205 X5 Y5
;TYPE:SKIN
G1 F1200 X49.91 Y92.137 E50.91409
G1 X48.593 Y93.656 E51.01439
G1 X48.41 Y93.818 E51.02658
G1 X48.41 Y100.063 E51.33815
G1 X49.91 Y101.791 E51.45231
G1 X49.91 Y126.209 E52.67053
G1 X48.41 Y127.937 E52.78469
G1 X48.41 Y134.135 E53.09391
G1 X49.91 Y135.862 E53.20803
G1 X49.91 Y169.41 E54.88175
G1 X43.09 Y169.41 E55.222
G1 X43.09 Y137.662 E56.80591
G1 X47.456 Y140.716 E57.07173
G1 X48.09 Y140.385 E57.10741
G1 X48.09 Y133.22 E57.46488
G1 X47.456 Y132.889 E57.50056
G1 X43.09 Y135.943 E57.76638
G1 X43.09 Y97.687 E59.67498
G1 X48.09 Y94.186 E59.9795
G1 X48.09 Y86.072 E60.38431
G1 X43.09 Y82.571 E60.68883
G1 X43.09 Y50.59 E62.28437
G1 X74.838 Y50.59 E63.86829
G1 X71.784 Y54.956 E64.13411
G1 X72.115 Y55.59 E64.16979
G1 X79.28 Y55.59 E64.52725
G1 X79.611 Y54.956 E64.56293
G1 X76.557 Y50.59 E64.82875
G1 X114.813 Y50.59 E66.73735
G1 X118.314 Y55.59 E67.04188
G1 X126.428 Y55.59 E67.44669
G1 X129.929 Y50.59 E67.75121
G1 X161.91 Y50.59 E69.34675
G1 X161.91 Y57.41 E69.687
G1 X110.742 Y57.41 E72.23978
G1 X109.245 Y55.91 E72.34551
G1 X103.755 Y55.91 E72.6194
G1 X102.258 Y57.41 E72.72513
G1 X49.91 Y57.41 E75.33678
M205 X10 Y10
G0 F2400 X50.16 Y57.66
G0 X102.346 Y57.626
G0 X103.845 Y56.126
G0 X109.155 Y56.126
G0 X110.654 Y57.626
G0 X162.118 Y57.618
G0 X162.118 Y50.382
G0 X161.589 Y50.91
M73 R55
M205 X5 Y5
G1 F1200 X161.218 Y50.91 E75.35529
G1 X161.589 Y51.28 E75.38143
M205 X10 Y10
G0 F2400 X161.218 Y50.91
M205 X5 Y5
G1 F1200 X160.653 Y50.91 E75.40962
G1 X161.589 Y51.846 E75.47566
G1 X161.589 Y52.412 E75.5039
G1 X160.087 Y50.91 E75.60987
G1 X159.521 Y50.91 E75.63811
G1 X161.589 Y52.977 E75.78399
G1 X161.589 Y53.543 E75.81222
G1 X158.956 Y50.91 E75.998
G1 X158.39 Y50.91 E76.02623
G1 X161.589 Y54.109 E76.25194
G1 X161.589 Y54.674 E76.28013
G1 X157.824 Y50.91 E76.54573
G1 X157.259 Y50.91 E76.57392
G1 X161.589 Y55.24 E76.87943
G1 X161.589 Y55.806 E76.90766
G1 X156.693 Y50.91 E77.2531
G1 X156.127 Y50.91 E77.28134
G1 X161.589 Y56.371 E77.66668
G1 X161.589 Y56.937 E77.69492
G1 X155.562 Y50.91 E78.12016
G1 X154.996 Y50.91 E78.14839
G1 X161.176 Y57.09 E78.58443
G1 X160.61 Y57.09 E78.61266
G1 X154.43 Y50.91 E79.0487
G1 X153.865 Y50.91 E79.07688
G1 X160.045 Y57.09 E79.51292
G1 X159.479 Y57.09 E79.54115
G1 X153.299 Y50.91 E79.97719
G1 X152.733 Y50.91 E80.00542
G1 X158.913 Y57.09 E80.44146
G1 X158.348 Y57.09 E80.46964
G1 X152.167 Y50.91 E80.90571
G1 X151.602 Y50.91 E80.9339
G1 X157.782 Y57.09 E81.36993
G1 X157.216 Y57.09 E81.39817
G1 X151.036 Y50.91 E81.8342
G1 X150.47 Y50.91 E81.86244
G1 X156.651 Y57.09 E82.29851
G1 X156.085 Y57.09 E82.32675
G1 X149.905 Y50.91 E82.76278
G1 X149.339 Y50.91 E82.79102
G1 X155.519 Y57.09 E83.22705
G1 X154.953 Y57.09 E83.25529
G1 X148.773 Y50.91 E83.69132
G1 X148.208 Y50.91 E83.71951
G1 X154.388 Y57.09 E84.15554
G1 X153.822 Y57.09 E84.18378
G1 X147.642 Y50.91 E84.61981
G1 X147.076 Y50.91 E84.64805
G1 X153.256 Y57.09 E85.08408
G1 X152.691 Y57.09 E85.11227
G1 X146.511 Y50.91 E85.5483
M73 P2
G1 X145.945 Y50.91 E85.57654
G1 X152.125 Y57.09 E86.01257
G1 X151.559 Y57.09 E86.04081
G1 X145.379 Y50.91 E86.47684
G1 X144.814 Y50.91 E86.50503
G1 X150.994 Y57.09 E86.94106
G1 X150.428 Y57.09 E86.9693
G1 X144.248 Y50.91 E87.40533
G1 X143.682 Y50.91 E87.43357
M73 R55
G1 X149.862 Y57.09 E87.8696
G1 X149.297 Y57.09 E87.89779
G1 X143.116 Y50.91 E88.33386
G1 X142.551 Y50.91 E88.36204
G1 X148.731 Y57.09 E88.79808
G1 X148.165 Y57.09 E88.82632
G1 X141.985 Y50.91 E89.26235
G1 X141.419 Y50.91 E89.29059
G1 X147.6 Y57.09 E89.72665
G1 X147.034 Y57.09 E89.75489
G1 X140.854 Y50.91 E90.19092
G1 X140.288 Y50.91 E90.21916
G1 X146.468 Y57.09 E90.65519
G1 X145.902 Y57.09 E90.68343
G1 X139.722 Y50.91 E91.11946
G1 X139.157 Y50.91 E91.14765
G1 X145.337 Y57.09 E91.58368
G1 X144.771 Y57.09 E91.61192
G1 X138.591 Y50.91 E92.04795
G1 X138.025 Y50.91 E92.07619
G1 X144.205 Y57.09 E92.51222
G1 X143.64 Y57.09 E92.54041
G1 X137.46 Y50.91 E92.97644
G1 X136.894 Y50.91 E93.00468
G1 X143.074 Y57.09 E93.44072
G1 X142.508 Y57.09 E93.46895
G1 X136.328 Y50.91 E93.90499
G1 X135.763 Y50.91 E93.93317
G1 X141.943 Y57.09 E94.36921
G1 X141.377 Y57.09 E94.39744
G1 X135.197 Y50.91 E94.83348
G1 X134.631 Y50.91 E94.86171
G1 X140.811 Y57.09 E95.29775
G1 X140.246 Y57.09 E95.32593
G1 X134.066 Y50.91 E95.76197
G1 X133.5 Y50.91 E95.7902
G1 X139.68 Y57.09 E96.22624
G1 X139.114 Y57.09 E96.25447
G1 X132.934 Y50.91 E96.69051
G1 X132.368 Y50.91 E96.71874
G1 X138.549 Y57.09 E97.15481
G1 X137.983 Y57.09 E97.18305
G1 X131.803 Y50.91 E97.61908
G1 X131.237 Y50.91 E97.64732
G1 X137.417 Y57.09 E98.08335
G1 X136.852 Y57.09 E98.11154
G1 X130.671 Y50.91 E98.54761
G1 X130.106 Y50.91 E98.5758
G1 X136.286 Y57.09 E99.01183
G1 X135.72 Y57.09 E99.04007
G1 X129.865 Y51.235 E99.45317
G1 X129.632 Y51.567 E99.4734
G1 X135.154 Y57.09 E99.86305
G1 X134.589 Y57.09 E99.89123
G1 X129.399 Y51.9 E100.25742
G1 X129.166 Y52.233 E100.27769
G1 X134.023 Y57.09 E100.62038
G1 X133.457 Y57.09 E100.64862
G1 X128.933 Y52.566 E100.96781
G1 X128.7 Y52.898 E100.98805
G1 X132.892 Y57.09 E101.28382
G1 X132.326 Y57.09 E101.31205
G1 X128.467 Y53.231 E101.58433
G1 X128.234 Y53.564 E101.6046
G1 X131.76 Y57.09 E101.85338
G1 X131.195 Y57.09 E101.88157
M73 R54
G1 X128.001 Y53.897 E102.10689
G1 X127.768 Y54.229 E102.12712
G1 X130.629 Y57.09 E102.32898
G1 X130.063 Y57.09 E102.35722
G1 X127.535 Y54.562 E102.53558
G1 X127.303 Y54.895 E102.55583
G1 X129.498 Y57.09 E102.7107
G1 X128.932 Y57.09 E102.73894
G1 X127.069 Y55.227 E102.87038
G1 X126.837 Y55.56 E102.89063
G1 X128.366 Y57.09 E102.99855
G1 X127.801 Y57.09 E103.02673
G1 X126.603 Y55.893 E103.11122
G1 X126.593 Y55.909 E103.11217
G1 X126.055 Y55.91 E103.13901
G1 X127.235 Y57.09 E103.22226
G1 X126.669 Y57.09 E103.2505
G1 X125.489 Y55.91 E103.33376
G1 X124.923 Y55.91 E103.36199
G1 X126.104 Y57.09 E103.44528
G1 X125.538 Y57.09 E103.47352
G1 X124.358 Y55.91 E103.55678
G1 X123.792 Y55.91 E103.58501
G1 X124.972 Y57.09 E103.66827
G1 X124.406 Y57.09 E103.69651
G1 X123.226 Y55.91 E103.77976
G1 X122.661 Y55.91 E103.80795
G1 X123.841 Y57.09 E103.89121
G1 X123.275 Y57.09 E103.91944
G1 X122.095 Y55.91 E104.0027
G1 X121.529 Y55.91 E104.03094
G1 X122.709 Y57.09 E104.11419
G1 X122.144 Y57.09 E104.14238
G1 X120.964 Y55.91 E104.22564
G1 X120.398 Y55.91 E104.25387
G1 X121.578 Y57.09 E104.33713
G1 X121.012 Y57.09 E104.36537
G1 X119.832 Y55.91 E104.44862
G1 X119.266 Y55.91 E104.47686
G1 X120.447 Y57.09 E104.56015
G1 X119.881 Y57.09 E104.58839
G1 X118.701 Y55.91 E104.67164
M205 X10 Y10
G0 F2400 X118.146 Y55.91
M205 X5 Y5
G1 F1200 X116.852 Y54.061 E104.78424
G1 X113.701 Y50.91 E105.00656
G1 X113.135 Y50.91 E105.0348
G1 X119.315 Y57.09 E105.47083
G1 X118.75 Y57.09 E105.49902
G1 X112.569 Y50.91 E105.93508
G1 X112.004 Y50.91 E105.96327
G1 X118.184 Y57.09 E106.3993
G1 X117.618 Y57.09 E106.42754
G1 X111.438 Y50.91 E106.86357
G1 X110.872 Y50.91 E106.89181
G1 X117.053 Y57.09 E107.32788
G1 X116.487 Y57.09 E107.35612
G1 X110.307 Y50.91 E107.79215
G1 X109.741 Y50.91 E107.82039
G1 X115.921 Y57.09 E108.25642
G1 X115.355 Y57.09 E108.28466
G1 X109.175 Y50.91 E108.72069
G1 X108.61 Y50.91 E108.74888
G1 X114.79 Y57.09 E109.18491
G1 X114.224 Y57.09 E109.21315
M73 R54
G1 X108.044 Y50.91 E109.64918
G1 X107.478 Y50.91 E109.67742
G1 X113.658 Y57.09 E110.11345
G1 X113.093 Y57.09 E110.14164
G1 X106.913 Y50.91 E110.57767
G1 X106.347 Y50.91 E110.60591
G1 X112.527 Y57.09 E111.04194
G1 X111.961 Y57.09 E111.07018
G1 X105.781 Y50.91 E111.50621
G1 X105.216 Y50.91 E111.5344
G1 X111.396 Y57.09 E111.97043
G1 X110.874 Y57.09 E111.99648
G1 X109.376 Y55.589 E112.10227
G1 X109.33 Y55.589 E112.10457
G1 X104.65 Y50.91 E112.43473
G1 X104.084 Y50.91 E112.46297
G1 X108.764 Y55.589 E112.79313
G1 X108.198 Y55.589 E112.82137
G1 X103.519 Y50.91 E113.1515
G1 X102.953 Y50.91 E113.17974
M73 P3
G1 X107.632 Y55.589 E113.50987
G1 X107.067 Y55.589 E113.53806
G1 X102.387 Y50.91 E113.86822
G1 X101.821 Y50.91 E113.89646
G1 X106.501 Y55.589 E114.22662
G1 X105.935 Y55.589 E114.25486
G1 X101.256 Y50.91 E114.58499
G1 X100.69 Y50.91 E114.61323
G1 X105.37 Y55.589 E114.94339
G1 X104.804 Y55.589 E114.97163
G1 X100.124 Y50.91 E115.30179
G1 X99.559 Y50.91 E115.32998
G1 X104.238 Y55.589 E115.66011
G1 X103.673 Y55.589 E115.6883
G1 X98.993 Y50.91 E116.01846
G1 X98.427 Y50.91 E116.0467
G1 X103.364 Y55.847 E116.39503
G1 X103.082 Y56.13 E116.41496
G1 X97.862 Y50.91 E116.78326
G1 X97.296 Y50.91 E116.8115
G1 X102.799 Y56.413 E117.19977
G1 X102.517 Y56.697 E117.21973
G1 X96.73 Y50.91 E117.62804
G1 X96.165 Y50.91 E117.65622
G1 X102.234 Y56.98 E118.08446
G1 X102.124 Y57.09 E118.09222
G1 X101.778 Y57.089 E118.10948
G1 X95.599 Y50.91 E118.54545
G1 X95.033 Y50.91 E118.57368
G1 X101.213 Y57.089 E119.00968
G1 X100.647 Y57.089 E119.03792
G1 X94.468 Y50.91 E119.47388
G1 X93.902 Y50.91 E119.50212
G1 X100.081 Y57.089 E119.93808
G1 X99.516 Y57.089 E119.96627
G1 X93.336 Y50.91 E120.40226
G1 X92.77 Y50.91 E120.4305
G1 X98.95 Y57.089 E120.8665
G1 X98.384 Y57.089 E120.89474
G1 X92.205 Y50.91 E121.3307
G1 X91.639 Y50.91 E121.35894
G1 X97.819 Y57.089 E121.79493
G1 X97.253 Y57.089 E121.82317
G1 X91.073 Y50.91 E122.25917
G1 X90.508 Y50.91 E122.28736
G1 X96.687 Y57.089 E122.72332
M73 R54
G1 X96.121 Y57.089 E122.75156
G1 X89.942 Y50.91 E123.18752
G1 X89.376 Y50.91 E123.21576
G1 X95.556 Y57.089 E123.65175
G1 X94.99 Y57.089 E123.67999
G1 X88.811 Y50.91 E124.11595
G1 X88.245 Y50.91 E124.14419
G1 X94.424 Y57.089 E124.58015
G1 X93.859 Y57.089 E124.60834
G1 X87.679 Y50.91 E125.04434
G1 X87.114 Y50.91 E125.07253
G1 X93.293 Y57.089 E125.50849
G1 X92.727 Y57.089 E125.53673
G1 X86.548 Y50.91 E125.97269
G1 X85.982 Y50.91 E126.00093
G1 X92.162 Y57.089 E126.43692
G1 X91.596 Y57.089 E126.46516
G1 X85.417 Y50.91 E126.90112
G1 X84.851 Y50.91 E126.92936
G1 X91.03 Y57.089 E127.36532
G1 X90.465 Y57.089 E127.39351
G1 X84.285 Y50.91 E127.82951
G1 X83.72 Y50.91 E127.8577
